icons/times-default.svg

<svg width="24" height="24" viewBox="0 0 24 24" fill="none" xmlns="http://www.w3.org/2000/svg">
<path fill-rule="evenodd" clip-rule="evenodd" d="M8.07099 6.657L12.314 10.899L16.556 6.657C17.02 6.177 17.491 6.177 17.971 6.657C18.451 7.137 18.451 7.607 17.971 8.071L13.728 12.314L17.971 16.556C18.442 17.028 18.442 17.499 17.971 17.971C17.499 18.442 17.028 18.442 16.556 17.971L12.314 13.728L8.06999 17.97C7.60999 18.452 7.13799 18.452 6.65599 17.97C6.17399 17.487 6.17399 17.016 6.65599 16.555L10.898 12.313L6.65699 8.07C6.18499 7.6 6.18499 7.128 6.65699 6.656C7.12899 6.184 7.59999 6.184 8.07099 6.656V6.657Z" fill="#3A3A47"/>
</svg>

<svg xmlns="http://www.w3.org/2000/svg" width="24" height="24" viewBox="0 0 24 24">
    <path fill="#3A3A47" fill-rule="evenodd" d="M8.071 6.657l4.243 4.242 4.242-4.242c.464-.48.935-.48 1.415 0s.48.95 0 1.414l-4.243 4.243 4.243 4.242c.471.472.471.943 0 1.415-.472.471-.943.471-1.415 0l-4.242-4.243L8.07 17.97c-.46.482-.932.482-1.414 0-.482-.483-.482-.954 0-1.415l4.242-4.242L6.657 8.07c-.472-.47-.472-.942 0-1.414s.943-.472 1.414 0z"/>
</svg>
